shared/images/iconfont/82-kb-iconfont-reacji-16.svg

<?xml version="1.0" encoding="UTF-8"?>
<svg width="16px" height="16px" viewBox="0 0 16 16" version="1.1" xmlns="http://www.w3.org/2000/svg" xmlns:xlink="http://www.w3.org/1999/xlink">
    <!-- Generator: sketchtool 54.1 (76490) - https://sketchapp.com -->
    <title>62A5A01A-5FA2-47E4-9AA0-EB7A9648303A</title>
    <desc>Created with sketchtool.</desc>
    <g id="Symbols" stroke="none" stroke-width="1" fill="none" fill-rule="evenodd">
        <g id="82-kb-iconfont-reacji-16">
            <g>
                <polygon id="icon-area" opacity="0" points="0 0 16 0 16 16 0 16"></polygon>
                <path d="M13.6188859,5.89105834 L12.6841071,6.85853516 L12.9544942,8.528426 C12.9856718,8.67181554 12.9316281,8.82035532 12.8155974,8.91018557 C12.6995666,9.00001581 12.542225,9.01512918 12.4112164,8.94902819 L10.9966912,8.16039908 L9.58466954,8.94151743 C9.4536609,9.00761843 9.29631931,8.99250506 9.18028858,8.90267482 C9.06425784,8.81284457 9.01021412,8.66430479 9.04139171,8.52091524 L9.30927525,6.84852083 L8.10254754,5.5967286 C8.01164304,5.50180925 7.97914181,5.3651688 8.01757389,5.23948552 C8.05600597,5.11380224 8.15936854,5.01870692 8.28781279,4.99086116 L9.95269645,4.74050271 L10.6687216,3.22333053 C10.7258784,3.08797543 10.8585255,3 11.0054537,3 C11.1523819,3 11.2850291,3.08797543 11.3421858,3.22333053 L12.0507002,4.7430063 L13.1424976,4.90718636 C12.0925093,3.16509017 10.1823153,2 8,2 C5.81690081,2 3.90611853,3.1659273 2.85637125,4.90906382 L3.95015038,4.74430641 L4.66617554,3.22455756 C4.72333231,3.08897258 4.85597944,3.00084773 5.00290765,3.00084773 C5.14983586,3.00084773 5.28248298,3.08897258 5.33963976,3.22455756 L6.04815416,4.74681425 L7.71303782,4.99759789 C7.84148207,5.02549094 7.94484464,5.12074777 7.98327672,5.2466445 C8.0217088,5.37254123 7.98920757,5.50941374 7.89830307,5.6044943 L6.68156102,6.865936 L6.95194815,8.53866288 C6.98312574,8.68229595 6.92908201,8.831088 6.81305128,8.92107081 C6.69702054,9.01105362 6.53967895,9.02619266 6.40867032,8.9599794 L4.9941451,8.17001093 L3.58212347,8.95245589 C3.45111483,9.01866915 3.29377324,9.00353011 3.17774251,8.9135473 C3.06171177,8.82356449 3.00766805,8.67477244 3.03884564,8.53113937 L3.30672918,6.85590466 L2.38029493,5.89324113 C2.13444952,6.54872264 2,7.25866014 2,8 C2,11.3137085 4.6862915,14 8,14 C8.41207891,13.999994 8.81445498,13.958447 9.20316889,13.8793181 C9.52858863,14.5430416 10.2109301,15 11,15 C11,15.1376912 11.0139142,15.2721326 11.0404132,15.4019948 C10.1030485,15.7874353 9.07634779,16 8,16 C3.581722,16 0,12.418278 0,8 C0,3.581722 3.581722,0 8,0 C12.418278,0 16,3.581722 16,8 C16,9.07634779 15.7874353,10.1030485 15.4019948,11.0404132 C15.2721326,11.0139142 15.1376912,11 15,11 C15,10.2109301 14.5430416,9.52858863 13.8793181,9.20316889 C13.958447,8.81445498 13.999994,8.41207891 14,8 C14,7.25783716 13.8652518,6.54714645 13.6188859,5.89105834 Z M11.2615028,10.0105528 C11.0950834,10.3023289 11,10.6400605 11,11 C9.92725658,11 9.0517739,11.8445736 9.00221373,12.905059 C8.6819274,12.9670335 8.34609686,13 8,13 C5.790861,13 4,11.6568542 4,10 C4,10.0275221 9.28086604,10.0239187 11.2615028,10.0105528 Z M14,12 L15,12 C15.5522847,12 16,12.4477153 16,13 C16,13.5522847 15.5522847,14 15,14 L14,14 L14,15 C14,15.5522847 13.5522847,16 13,16 C12.4477153,16 12,15.5522847 12,15 L12,14 L11,14 C10.4477153,14 10,13.5522847 10,13 C10,12.4477153 10.4477153,12 11,12 L12,12 L12,11 C12,10.4477153 12.4477153,10 13,10 C13.5522847,10 14,10.4477153 14,11 L14,12 Z" id="reacji" fill="#000000"></path>
            </g>
        </g>
    </g>
</svg>

<svg xmlns="http://www.w3.org/2000/svg" width="16" height="16" viewBox="0 0 16 16">
    <path fill="#000" fill-rule="nonzero" d="M13.619 5.891l-.935.968.27 1.67a.38.38 0 0 1-.543.42l-1.414-.789-1.412.782a.38.38 0 0 1-.544-.421l.268-1.672-1.206-1.252a.363.363 0 0 1 .185-.606l1.665-.25.716-1.518a.366.366 0 0 1 .673 0l.709 1.52 1.091.164A5.997 5.997 0 0 0 8 2a5.997 5.997 0 0 0-5.144 2.91l1.094-.166.716-1.52a.366.366 0 0 1 .674 0l.708 1.523 1.665.25a.363.363 0 0 1 .185.607L6.682 6.866l.27 1.673a.382.382 0 0 1-.543.421l-1.415-.79-1.412.782a.38.38 0 0 1-.543-.42l.268-1.676-.927-.963a6 6 0 0 0 6.823 7.986A2 2 0 0 0 11 15c0 .138.014.272.04.402a8 8 0 1 1 4.362-4.362A2.01 2.01 0 0 0 15 11a2 2 0 0 0-1.12-1.797 6.027 6.027 0 0 0-.261-3.312zm-2.357 4.12A1.99 1.99 0 0 0 11 11a2 2 0 0 0-1.998 1.905C8.682 12.967 8.346 13 8 13c-2.21 0-4-1.343-4-3 0 .028 5.28.024 7.262.01zM14 12h1a1 1 0 0 1 0 2h-1v1a1 1 0 0 1-2 0v-1h-1a1 1 0 0 1 0-2h1v-1a1 1 0 0 1 2 0v1z"/>
</svg>
